image/bg-gradient.svg

<svg fill="none" height="1408" viewBox="0 0 2672 1408" width="2672" xmlns="http://www.w3.org/2000/svg" xmlns:xlink="http://www.w3.org/1999/xlink"><filter id="a" color-interpolation-filters="sRGB" filterUnits="userSpaceOnUse" height="985.075" width="2299.17" x="372.438" y="161.324"><feFlood flood-opacity="0" result="BackgroundImageFix"/><feBlend in="SourceGraphic" in2="BackgroundImageFix" mode="normal" result="shape"/><feGaussianBlur result="effect1_foregroundBlur_2015_12776" stdDeviation="76.5"/></filter><filter id="b" color-interpolation-filters="sRGB" filterUnits="userSpaceOnUse" height="905.252" width="1512.6" x="0" y="309.112"><feFlood flood-opacity="0" result="BackgroundImageFix"/><feBlend in="SourceGraphic" in2="BackgroundImageFix" mode="normal" result="shape"/><feGaussianBlur result="effect1_foregroundBlur_2015_12776" stdDeviation="24.5"/></filter><filter id="c" color-interpolation-filters="sRGB" filterUnits="userSpaceOnUse" height="1116.32" width="1883.28" x="644.218" y="165.067"><feFlood flood-opacity="0" result="BackgroundImageFix"/><feBlend in="SourceGraphic" in2="BackgroundImageFix" mode="normal" result="shape"/><feGaussianBlur result="effect1_foregroundBlur_2015_12776" stdDeviation="24.5"/></filter><linearGradient id="d" gradientUnits="userSpaceOnUse" x1="2568.88" x2="1190.93" y1="378.759" y2="1670.45"><stop offset="0" stop-color="#fa4549"/><stop offset="1" stop-color="#fa4549" stop-opacity="0"/><stop offset="1" stop-color="#fa4549"/></linearGradient><radialGradient id="e" cx="0" cy="0" gradientTransform="matrix(-482.053 254.649 -446.237 -276.235 982.627 581.306)" gradientUnits="userSpaceOnUse" r="1"><stop offset="0" stop-color="#63d1f4"/><stop offset="1" stop-color="#484eb7" stop-opacity="0"/><stop offset="1" stop-color="#fff"/></radialGradient><radialGradient id="f" cx="0" cy="0" gradientTransform="matrix(-608.369 321.23 -563.168 -348.46 1871.49 495.618)" gradientUnits="userSpaceOnUse" r="1"><stop offset="0" stop-color="#63f3f4"/><stop offset="1" stop-color="#484eb7" stop-opacity="0"/><stop offset="1" stop-color="#fff"/></radialGradient><g filter="url(#a)"><path d="m1468.11 472.904c-400.76-.585-659.864 153.061-739.32 229.957-146.132 167.947-357.075 440.629-31.796 187.773 406.596-316.069 682.476-198.911 1384.756-208.052 561.83-7.314 464.15-200.74 345.07-296.539l-298.74-71.719c-53.01 53.104-259.21 159.165-659.97 158.58z" fill="url(#d)" fill-opacity=".75"/></g><g filter="url(#b)"><path d="m649.785 599.062c-304.605 72.68-466.543 236.737-509.437 309.681-72.861 154.317-171.1643 400.057 18.509 148.517 237.091-314.418 473.301-275.708 1004.773-410.798 425.18-108.072 307.01-237.263 194.78-288.35h-243.26c-28.2 50.033-160.76 168.27-465.365 240.95z" fill="url(#e)"/></g><g filter="url(#c)"><path d="m1451.43 518.017c-384.42 91.683-588.795 298.634-642.928 390.65-91.953 194.663-216.015 504.653 23.359 187.353 299.219-396.63 597.319-347.799 1268.059-518.21 536.59-136.329 387.46-299.299 245.83-363.743h-307.01c-35.59 63.115-202.89 212.266-587.31 303.95z" fill="url(#f)"/></g></svg>

<svg width="2672" height="1408" viewBox="0 0 2672 1408" fill="none" xmlns="http://www.w3.org/2000/svg">
<g filter="url(#filter0_f_2015_12776)">
<path d="M1468.11 472.904C1067.35 472.319 808.246 625.965 728.79 702.861C582.658 870.808 371.715 1143.49 696.994 890.634C1103.59 574.565 1379.47 691.723 2081.75 682.582C2643.58 675.268 2545.9 481.842 2426.82 386.043L2128.08 314.324C2075.07 367.428 1868.87 473.489 1468.11 472.904Z" fill="url(#paint0_linear_2015_12776)" fill-opacity="0.75"/>
</g>
<g style="mix-blend-mode:screen" filter="url(#filter1_f_2015_12776)">
<path d="M649.785 599.062C345.18 671.742 183.242 835.799 140.348 908.743C67.487 1063.06 -30.8163 1308.8 158.857 1057.26C395.948 742.842 632.158 781.552 1163.63 646.462C1588.81 538.39 1470.64 409.199 1358.41 358.112H1115.15C1086.95 408.145 954.39 526.382 649.785 599.062Z" fill="url(#paint1_radial_2015_12776)"/>
</g>
<g style="mix-blend-mode:screen" filter="url(#filter2_f_2015_12776)">
<path d="M1451.43 518.017C1067.01 609.7 862.635 816.651 808.502 908.667C716.549 1103.33 592.487 1413.32 831.861 1096.02C1131.08 699.39 1429.18 748.221 2099.92 577.81C2636.51 441.481 2487.38 278.511 2345.75 214.067L2038.74 214.067C2003.15 277.182 1835.85 426.333 1451.43 518.017Z" fill="url(#paint2_radial_2015_12776)"/>
</g>
<defs>
<filter id="filter0_f_2015_12776" x="372.438" y="161.324" width="2299.17" height="985.075" filterUnits="userSpaceOnUse" color-interpolation-filters="sRGB">
<feFlood flood-opacity="0" result="BackgroundImageFix"/>
<feBlend mode="normal" in="SourceGraphic" in2="BackgroundImageFix" result="shape"/>
<feGaussianBlur stdDeviation="76.5" result="effect1_foregroundBlur_2015_12776"/>
</filter>
<filter id="filter1_f_2015_12776" x="0" y="309.112" width="1512.6" height="905.252" filterUnits="userSpaceOnUse" color-interpolation-filters="sRGB">
<feFlood flood-opacity="0" result="BackgroundImageFix"/>
<feBlend mode="normal" in="SourceGraphic" in2="BackgroundImageFix" result="shape"/>
<feGaussianBlur stdDeviation="24.5" result="effect1_foregroundBlur_2015_12776"/>
</filter>
<filter id="filter2_f_2015_12776" x="644.218" y="165.067" width="1883.28" height="1116.32" filterUnits="userSpaceOnUse" color-interpolation-filters="sRGB">
<feFlood flood-opacity="0" result="BackgroundImageFix"/>
<feBlend mode="normal" in="SourceGraphic" in2="BackgroundImageFix" result="shape"/>
<feGaussianBlur stdDeviation="24.5" result="effect1_foregroundBlur_2015_12776"/>
</filter>
<linearGradient id="paint0_linear_2015_12776" x1="2568.88" y1="378.759" x2="1190.93" y2="1670.45" gradientUnits="userSpaceOnUse">
<stop stop-color="#FA4549"/>
<stop offset="1" stop-color="#FA4549" stop-opacity="0"/>
<stop offset="1" stop-color="#FA4549"/>
</linearGradient>
<radialGradient id="paint1_radial_2015_12776" cx="0" cy="0" r="1" gradientTransform="matrix(-482.053 254.649 -446.237 -276.235 982.627 581.306)" gradientUnits="userSpaceOnUse">
<stop stop-color="#63D1F4"/>
<stop offset="1" stop-color="#484EB7" stop-opacity="0"/>
<stop offset="1" stop-color="white"/>
</radialGradient>
<radialGradient id="paint2_radial_2015_12776" cx="0" cy="0" r="1" gradientTransform="matrix(-608.369 321.23 -563.168 -348.46 1871.49 495.618)" gradientUnits="userSpaceOnUse">
<stop stop-color="#63F3F4"/>
<stop offset="1" stop-color="#484EB7" stop-opacity="0"/>
<stop offset="1" stop-color="white"/>
</radialGradient>
</defs>
</svg>
